X: 1
T: Pigeon On The Gate
M: 4/4
L: 1/8
R: reel
K: Gmaj
Ac|: dGGF GedG | Gdce dcAG | =F2 FA cF F/2F/2F | =F2 dF cFAc |
dG {A}G/2G/2F GedG | Gdce dcAG | =F2 Ad fage | =fdcA G2 Ac :|
|: dggf gagf | dg g/2g/2g | bgag | d=f f/2f/2f afgf | d/2e/2=f eg fdcA |
G2gf gagf | dg g/2g/2g bgag | d=f f/2f/2f afge | =fdcA G2 Ac :|
